src/asset/img/icon/item_category/item2.svg

<svg xmlns:xlink="http://www.w3.org/1999/xlink" height="14.6" width="25" xmlns="http://www.w3.org/2000/svg"><use height="54.2" transform="matrix(.2688 0 0 .2695 -.023 -.009)" width="93.05" xlink:href="#a"/><defs><use height="54.2" width="93.05" xlink:href="#b" id="a"/><g id="b" fill="#3f5a75" fill-rule="evenodd"><path d="M43.5 38.45q-3.25 3.1-1.3 4.55 1.45 1.25 5.8-1.45l8.35-6q13.9-10.1 9.9-14.6-1.8-2.2-7.55 3.6-6.15 7.25-8.35 8.85l-6.85 5.05M69 17.65q4.7 4.2-.55 10.85-2.9 4-12.5 11.8-6.55 5.45-13.25 9.25l.05 1.6q0 8.1-5.8 13.55-4.25 4-9.75 4.85l-1.6.2h-1.45l-1.5-.2q-5.5-.85-9.9-4.85-5.8-5.45-5.8-13.55l.1-1.95-.1-.05Q.1 45.35-6.6 39.9q-9.6-7.75-12.5-11.75-5.25-6.7-.55-10.85 4.55-3.95 9.95.9 3.25 2.9 9.95 10.85 5 5.25 12.45 8.3 3.85-3.1 10.25-3.65l1.2-.1h1.45l1.15.1q6.85.5 10.8 3.8 6.85-3.1 11.55-8.05l9.95-10.7q5.6-4.9 9.95-1.1M5.85 38.1-.8 32.85-9.3 24q-5.8-5.8-7.6-3.6-2.2 2.5 1.45 7.2 2.85 3.65 8.5 7.6l8.5 6q4.3 2.7 5.75 1.45 1.8-1.45-1.45-4.55m5.65 10.5q0 4.7 3.6 11.05 3.45 6.3 5.8 6.3h8.3q2.55 0 5.95-6.3Q38.8 53.3 38.8 48.6q0-5.05-3.25-8.15-3.45-3.25-9.8-3.25l-.6.05-.65-.05q-6.35 0-9.75 3.25-3.25 3.1-3.25 8.15" fill-opacity=".902" transform="translate(21.85 -15.55)"/><path d="m63.2 22-1.55.95-1.75 1.35q-1.3 1.05-2.85 2.6-5.75 5.75-6.3 8.4l-.4-.65-3.45 2.55q-1.8 1.65-1.95 3.6 2.9.55 5.25-.9 1.9-1.15 1.5-2.8 2.1.15 8.6-5.3 8.7-7.6 5.6-9.95l-2.7.15M43.5 38.45l6.85-5.05q2.2-1.6 8.35-8.85 5.75-5.8 7.55-3.6 4 4.5-9.9 14.6l-8.35 6q-4.35 2.7-5.8 1.45-1.95-1.45 1.3-4.55m-32 10.15q0-5.05 3.25-8.15 3.4-3.25 9.75-3.25l.65.05.6-.05q6.35 0 9.8 3.25 3.25 3.1 3.25 8.15 0 4.7-3.65 11.05-3.4 6.3-5.95 6.3h-8.3q-2.35 0-5.8-6.3-3.6-6.35-3.6-11.05M5.85 38.1q3.25 3.1 1.45 4.55-1.45 1.25-5.75-1.45l-8.5-6q-5.65-3.95-8.5-7.6-3.65-4.7-1.45-7.2 1.8-2.2 7.6 3.6l8.5 8.85 6.65 5.25m9 8.65.05 2.05q.35 6.85 5.25 9.4 4.7 2.5 9.6-4.2 4.15-5.6.7-10.65-3.6-5.25-10.3-3.8l-.95.25q-3.4-2.25-4.65 3.75-.5 1.85.3 3.2M-14.9 26.9l3.75 4.15q6.9 6.7 9.25 6.15 3.25-.7-4.35-9.4-7.6-8.7-9.95-5.6-.45.55-.35 1.4v.4q0 2.05 1.65 2.9" fill-opacity=".502" transform="translate(21.85 -15.55)"/><path d="M61.65 22.95 63.2 22l-1.1.75-.45.2M63.2 22l2.7-.15q3.1 2.35-5.6 9.95-6.5 5.45-8.6 5.3-.2-.75-.8-1.55l-.15-.25q.55-2.65 6.3-8.4 1.55-1.55 2.85-2.6-.45.75-.3 1.85.35 2.75 3.6 2Q65 26.9 65 25.1q.2-2-1.8-3.1m-44 17.8.95-.25q6.7-1.45 10.3 3.8 3.45 5.05-.7 10.65-4.9 6.7-9.6 4.2-4.9-2.55-5.25-9.4l-.05-2.05.25.4q1.25 1.65 3.6 1.45 7.95-.75 2.7-6.7l-2.2-2.1m-35.75-16.2q-.1-.85.35-1.4 2.35-3.1 9.95 5.6t4.35 9.4q-2.35.55-9.25-6.15l-3.75-4.15.9.35q3.05.9 3.05-1.45-.2-2.35-2.55-3.6l-.15-.35q-2.8-.2-2.9 1.75" fill-opacity=".251" transform="translate(21.85 -15.55)"/></g></defs></svg>

<?xml version="1.0" encoding="UTF-8" standalone="no"?>
<svg xmlns:xlink="http://www.w3.org/1999/xlink" height="14.6px" width="25.0px" xmlns="http://www.w3.org/2000/svg">
  <g transform="matrix(1.0, 0.0, 0.0, 1.0, 0.0, -5.7)">
    <use height="54.2" transform="matrix(0.2688, 0.0, 0.0, 0.2695, -0.0233, 5.6912)" width="93.05" xlink:href="#sprite0"/>
  </g>
  <defs>
    <g id="sprite0" transform="matrix(1.0, 0.0, 0.0, 1.0, 21.85, -15.55)">
      <use height="54.2" transform="matrix(1.0, 0.0, 0.0, 1.0, -21.85, 15.55)" width="93.05" xlink:href="#shape0"/>
    </g>
    <g id="shape0" transform="matrix(1.0, 0.0, 0.0, 1.0, 21.85, -15.55)">
      <path d="M43.5 38.45 Q40.25 41.55 42.2 43.0 43.65 44.25 48.0 41.55 L56.35 35.55 Q70.25 25.45 66.25 20.95 64.45 18.75 58.7 24.55 52.55 31.8 50.35 33.4 L43.5 38.45 M69.0 17.65 Q73.7 21.85 68.45 28.5 65.55 32.5 55.95 40.3 49.4 45.75 42.7 49.55 L42.75 51.15 Q42.75 59.25 36.95 64.7 32.7 68.7 27.2 69.55 L25.6 69.75 24.9 69.75 24.15 69.75 22.65 69.55 Q17.15 68.7 12.75 64.7 6.95 59.25 6.95 51.15 L7.05 49.2 6.95 49.15 Q0.1 45.35 -6.6 39.9 -16.2 32.15 -19.1 28.15 -24.35 21.45 -19.65 17.3 -15.1 13.35 -9.7 18.2 -6.45 21.1 0.25 29.05 5.25 34.3 12.7 37.35 16.55 34.25 22.95 33.7 L24.15 33.6 24.9 33.6 25.6 33.6 26.75 33.7 Q33.6 34.2 37.55 37.5 44.4 34.4 49.1 29.45 L59.05 18.75 Q64.65 13.85 69.0 17.65 M5.85 38.1 L-0.8 32.85 -9.3 24.0 Q-15.1 18.2 -16.9 20.4 -19.1 22.9 -15.45 27.6 -12.6 31.25 -6.95 35.2 L1.55 41.2 Q5.85 43.9 7.3 42.65 9.1 41.2 5.85 38.1 M11.5 48.6 Q11.5 53.3 15.1 59.65 18.55 65.95 20.9 65.95 L29.2 65.95 Q31.75 65.95 35.15 59.65 38.8 53.3 38.8 48.6 38.8 43.55 35.55 40.45 32.1 37.2 25.75 37.2 L25.15 37.25 24.5 37.2 Q18.15 37.2 14.75 40.45 11.5 43.55 11.5 48.6" fill="#3f5a75" fill-opacity="0.9019608" fill-rule="evenodd" stroke="none"/>
      <path d="M63.2 22.0 L61.65 22.95 59.9 24.3 Q58.6 25.35 57.05 26.9 51.3 32.65 50.75 35.3 L50.35 34.65 46.9 37.2 Q45.1 38.85 44.95 40.8 47.85 41.35 50.2 39.9 52.1 38.75 51.7 37.1 53.8 37.25 60.3 31.8 69.0 24.2 65.9 21.85 L63.2 22.0 M43.5 38.45 L50.35 33.4 Q52.55 31.8 58.7 24.55 64.45 18.75 66.25 20.95 70.25 25.45 56.35 35.55 L48.0 41.55 Q43.65 44.25 42.2 43.0 40.25 41.55 43.5 38.45 M11.5 48.6 Q11.5 43.55 14.75 40.45 18.15 37.2 24.5 37.2 L25.15 37.25 25.75 37.2 Q32.1 37.2 35.55 40.45 38.8 43.55 38.8 48.6 38.8 53.3 35.15 59.65 31.75 65.95 29.2 65.95 L20.9 65.95 Q18.55 65.95 15.1 59.65 11.5 53.3 11.5 48.6 M5.85 38.1 Q9.1 41.2 7.3 42.65 5.85 43.9 1.55 41.2 L-6.95 35.2 Q-12.6 31.25 -15.45 27.6 -19.1 22.9 -16.9 20.4 -15.1 18.2 -9.3 24.0 L-0.8 32.85 5.85 38.1 M14.85 46.75 L14.9 48.8 Q15.25 55.65 20.15 58.2 24.85 60.7 29.75 54.0 33.9 48.4 30.45 43.35 26.85 38.1 20.15 39.55 L19.2 39.8 Q15.8 37.55 14.55 43.55 14.05 45.4 14.85 46.75 M-14.9 26.9 L-11.15 31.05 Q-4.25 37.75 -1.9 37.2 1.35 36.5 -6.25 27.8 -13.85 19.1 -16.2 22.2 -16.65 22.75 -16.55 23.6 L-16.55 24.0 Q-16.55 26.05 -14.9 26.9" fill="#3f5a75" fill-opacity="0.5019608" fill-rule="evenodd" stroke="none"/>
      <path d="M61.65 22.95 L63.2 22.0 62.1 22.75 61.65 22.95 M63.2 22.0 L65.9 21.85 Q69.0 24.2 60.3 31.8 53.8 37.25 51.7 37.1 51.5 36.35 50.9 35.55 L50.75 35.3 Q51.3 32.65 57.05 26.9 58.6 25.35 59.9 24.3 59.45 25.05 59.6 26.15 59.95 28.9 63.2 28.15 65.0 26.9 65.0 25.1 65.2 23.1 63.2 22.0 M19.2 39.8 L20.15 39.55 Q26.85 38.1 30.45 43.35 33.9 48.4 29.75 54.0 24.85 60.7 20.15 58.2 15.25 55.65 14.9 48.8 L14.85 46.75 15.1 47.15 Q16.35 48.8 18.7 48.6 26.65 47.85 21.4 41.9 L19.2 39.8 M-16.55 23.6 Q-16.65 22.75 -16.2 22.2 -13.85 19.1 -6.25 27.8 1.35 36.5 -1.9 37.2 -4.25 37.75 -11.15 31.05 L-14.9 26.9 -14.0 27.25 Q-10.95 28.15 -10.95 25.8 -11.15 23.45 -13.5 22.2 L-13.65 21.85 Q-16.45 21.65 -16.55 23.6" fill="#3f5a75" fill-opacity="0.2509804" fill-rule="evenodd" stroke="none"/>
    </g>
  </defs>
</svg>
